polaris-icons/icons/newicons/FulfillmentFulfilledMajor.svg

<svg width="20" height="20" viewBox="0 0 20 20" fill="none" xmlns="http://www.w3.org/2000/svg">
<path fill-rule="evenodd" clip-rule="evenodd" d="M15.5 8V11.25C15.5 11.6642 15.8358 12 16.25 12C16.6642 12 17 11.6642 17 11.25V7.25C17 7.16403 16.9852 7.07871 16.9563 6.99775L16.4174 5.48874C15.8843 3.99626 14.4706 3 12.8858 3H7.18014C5.64604 3 4.26665 3.93441 3.69764 5.35907L3.0535 6.97181C3.01816 7.0603 3 7.15472 3 7.25V13.25C3 15.3211 4.67893 17 6.75 17H9.25C9.66421 17 10 16.6642 10 16.25C10 15.8358 9.66421 15.5 9.25 15.5H6.75C5.50736 15.5 4.5 14.4926 4.5 13.25V8H15.5ZM7.18014 4.5C6.25968 4.5 5.43205 5.06064 5.09064 5.91544L4.85716 6.5H9.25V4.5H7.18014ZM10.75 4.5V6.5H15.1857L15.0048 5.99324C14.6849 5.09776 13.8367 4.5 12.8858 4.5H10.75Z" fill="black"/>
<path d="M12.2197 15.1821C12.5126 14.8892 12.9874 14.8892 13.2803 15.1821L14.2981 16.1998L16.7301 13.7679C17.023 13.475 17.4978 13.475 17.7907 13.7679C18.0836 14.0608 18.0836 14.5356 17.7907 14.8285L14.8284 17.7908C14.5355 18.0837 14.0607 18.0837 13.7678 17.7908L12.2197 16.2427C11.9268 15.9498 11.9268 15.475 12.2197 15.1821Z" fill="black"/>
<path d="M6.75 9.25C6.33579 9.25 6 9.58579 6 10C6 10.4142 6.33579 10.75 6.75 10.75H9.25C9.66421 10.75 10 10.4142 10 10C10 9.58579 9.66421 9.25 9.25 9.25H6.75Z" fill="black"/>
</svg>

<svg viewBox="0 0 20 20" fill="none" xmlns="http://www.w3.org/2000/svg"><path fill-rule="evenodd" clip-rule="evenodd" d="M15.5 8v3.25a.75.75 0 0 0 1.5 0v-4a.75.75 0 0 0-.044-.252l-.539-1.51a3.75 3.75 0 0 0-3.531-2.488h-5.706a3.75 3.75 0 0 0-3.482 2.36l-.644 1.612a.75.75 0 0 0-.054.278v6a3.75 3.75 0 0 0 3.75 3.75h2.5a.75.75 0 0 0 0-1.5h-2.5a2.25 2.25 0 0 1-2.25-2.25v-5.25h11Zm-8.32-3.5c-.92 0-1.748.56-2.09 1.415l-.233.585h4.393v-2h-2.07Zm3.57 0v2h4.436l-.181-.507a2.25 2.25 0 0 0-2.12-1.493h-2.135Z" fill="#000"/><path d="M12.22 15.182a.75.75 0 0 1 1.06 0l1.018 1.018 2.432-2.432a.75.75 0 1 1 1.06 1.06l-2.962 2.963a.75.75 0 0 1-1.06 0l-1.548-1.548a.75.75 0 0 1 0-1.06Z" fill="#000"/><path d="M6.75 9.25a.75.75 0 0 0 0 1.5h2.5a.75.75 0 0 0 0-1.5h-2.5Z" fill="#000"/></svg>
